X: 739
T: Tim The Thatcher
M:6/8
L:1/8
B:O'Neill's 739
R:Jig
Z:"Transcribed by Bob Safranek, rjs@gsp.org"
N:"Collected by Mary O'Neill"
K:A
   E | A>BA c2 A | d2 B G2   B    | A>BA c2 A | B2 E GAB |
       A>BA c2 A | dBd  e2 (e/f/) | =gag gfe  | dBG  A2 :|
|: d | e>fe d2 B | e2 A   A>Bd    | e>fe d2 B | dBG GBd  |
       e>fe d2 B | e2 f g2   a    | ba=g gfe  | dBG  A2 :|


